docs/public/static/images/examples/remix.svg

<svg width="40" height="40" viewBox="0 0 40 40" fill="none" xmlns="http://www.w3.org/2000/svg">
<path d="M20 40C31.0457 40 40 31.0457 40 20C40 8.9543 31.0457 0 20 0C8.9543 0 0 8.9543 0 20C0 31.0457 8.9543 40 20 40Z" fill="black"/>
<path d="M29.7808 26.3623C29.9953 29.1139 29.9953 30.4036 29.9953 31.8111H23.6302C23.6302 31.504 23.6353 31.2241 23.6403 30.9392C23.6584 30.0552 23.6765 29.133 23.5326 27.2714C23.3433 24.545 22.1693 23.9389 20.0117 23.9389H10V18.9793H20.3138C23.0402 18.9793 24.4045 18.1507 24.4045 15.9538C24.4045 14.0238 23.0402 12.8528 20.3138 12.8528H10V8H21.4505C27.6222 8 30.69 10.9157 30.69 15.5722C30.69 19.0558 28.5314 21.3272 25.6157 21.7057C28.0773 22.1981 29.5161 23.5986 29.7808 26.3623Z" fill="white"/>
</svg>

<svg width="40" height="40" fill="none" xmlns="http://www.w3.org/2000/svg"><path d="M20 40a20 20 0 1 0 0-40 20 20 0 0 0 0 40Z" fill="#000"/><path d="M29.78 26.36c.22 2.75.22 4.04.22 5.45h-6.37l.01-.87c.02-.88.04-1.8-.1-3.67-.2-2.72-1.37-3.33-3.53-3.33H10v-4.96h10.31c2.73 0 4.1-.83 4.1-3.03 0-1.93-1.37-3.1-4.1-3.1H10V8h11.45c6.17 0 9.24 2.92 9.24 7.57 0 3.49-2.16 5.76-5.07 6.14 2.46.49 3.9 1.89 4.16 4.65Z" fill="#fff"/></svg>
